assets/logo.svg

<svg height="257" viewBox="0 0 257 257" width="257" xmlns="http://www.w3.org/2000/svg" xmlns:xlink="http://www.w3.org/1999/xlink"><defs><circle id="a" cx="128.5" cy="128.5" r="125.5"/><path id="b" d="m9.6 0h54.4531716l37.9468284 38.5703187v93.8296813c0 5.301934-4.2980664 9.6-9.6 9.6h-82.8c-5.3019336 0-9.6-4.298066-9.6-9.6v-122.8c0-5.3019336 4.2980664-9.6 9.6-9.6z"/><filter id="c" height="102.8%" width="103.9%" x="-2%" y="-.7%"><feOffset dx="0" dy="1" in="SourceAlpha" result="shadowOffsetOuter1"/><feGaussianBlur in="shadowOffsetOuter1" result="shadowBlurOuter1" stdDeviation=".5"/><feColorMatrix in="shadowBlurOuter1" type="matrix" values="0 0 0 0 0   0 0 0 0 0   0 0 0 0 0  0 0 0 0.2 0"/></filter><linearGradient id="d" x1="50%" x2="50%" y1="0%" y2="100%"><stop offset="0" stop-color="#28865d"/><stop offset="1" stop-color="#22a565"/></linearGradient><mask id="e" fill="#fff"><use fill="none" xlink:href="#a"/></mask></defs><g fill="none" fill-rule="evenodd"><use fill="#1d4d35" xlink:href="#a"/><g mask="url(#e)"><g transform="translate(78 58)"><g fill="none"><use fill="#000" filter="url(#c)" xlink:href="#b"/><use fill="#22a565" fill-rule="evenodd" xlink:href="#b"/></g><g fill-rule="evenodd"><path d="m99.6036202 36.1016949 2.3963798 2.4686238v31.6197074l-33.862069-34.0883312z" fill="url(#d)"/><path d="m26 70h50v45h-50zm6 6v7h16v-7zm0 13v7h16v-7zm0 13v7h16v-7zm22-26v7h16v-7zm0 13v7h16v-7zm0 13v7h16v-7z" fill="#fff"/><path d="m64 .00054374 28.4-.00054374c5.3019336 0 9.6 4.2980664 9.6 9.6v.00054376l-.002152 28.39999994z" fill="#8ed0b0" transform="matrix(-1 0 0 -1 166 38.000544)"/></g></g></g></g></svg>

<?xml version="1.0" encoding="UTF-8"?>
<svg width="257px" height="257px" viewBox="0 0 257 257" version="1.1" xmlns="http://www.w3.org/2000/svg" xmlns:xlink="http://www.w3.org/1999/xlink">
    <!-- Generator: Sketch 50.2 (55047) - http://www.bohemiancoding.com/sketch -->
    <title>google-sheets/logo</title>
    <desc>Created with Sketch.</desc>
    <defs>
        <circle id="path-1" cx="128.5" cy="128.5" r="125.5"></circle>
        <path d="M9.6,0 L64.0531716,0 L102,38.5703187 L102,132.4 C102,137.701934 97.7019336,142 92.4,142 L9.6,142 C4.2980664,142 1.8907377e-14,137.701934 1.77635684e-15,132.4 L0,9.6 C-6.49299601e-16,4.2980664 4.2980664,2.75030624e-15 9.6,1.77635684e-15 Z" id="path-3"></path>
        <filter x="-2.0%" y="-0.7%" width="103.9%" height="102.8%" filterUnits="objectBoundingBox" id="filter-4">
            <feOffset dx="0" dy="1" in="SourceAlpha" result="shadowOffsetOuter1"></feOffset>
            <feGaussianBlur stdDeviation="0.5" in="shadowOffsetOuter1" result="shadowBlurOuter1"></feGaussianBlur>
            <feColorMatrix values="0 0 0 0 0   0 0 0 0 0   0 0 0 0 0  0 0 0 0.2 0" type="matrix" in="shadowBlurOuter1"></feColorMatrix>
        </filter>
        <linearGradient x1="50%" y1="0%" x2="50%" y2="100%" id="linearGradient-5">
            <stop stop-color="#28865D" offset="0%"></stop>
            <stop stop-color="#22A565" offset="100%"></stop>
        </linearGradient>
    </defs>
    <g id="google-sheets/logo" stroke="none" stroke-width="1" fill="none" fill-rule="evenodd">
        <mask id="mask-2" fill="white">
            <use xlink:href="#path-1"></use>
        </mask>
        <use id="Mask" fill="#1D4D35" xlink:href="#path-1"></use>
        <g id="Group" mask="url(#mask-2)">
            <g transform="translate(78.000000, 58.000000)">
                <g id="Rectangle-2" fill="none">
                    <use fill="black" fill-opacity="1" filter="url(#filter-4)" xlink:href="#path-3"></use>
                    <use fill="#22A565" fill-rule="evenodd" xlink:href="#path-3"></use>
                </g>
                <path d="M99.6036202,36.1016949 L102,38.5703187 L102,70.1900261 L68.137931,36.1016949 L99.6036202,36.1016949 Z" id="Combined-Shape" fill="url(#linearGradient-5)" fill-rule="evenodd"></path>
                <path d="M26,70 L76,70 L76,115 L26,115 L26,70 Z M32,76 L32,83 L48,83 L48,76 L32,76 Z M32,89 L32,96 L48,96 L48,89 L32,89 Z M32,102 L32,109 L48,109 L48,102 L32,102 Z M54,76 L54,83 L70,83 L70,76 L54,76 Z M54,89 L54,96 L70,96 L70,89 L54,89 Z M54,102 L54,109 L70,109 L70,102 L54,102 Z" id="Combined-Shape" fill="#FFFFFF" fill-rule="evenodd"></path>
                <path d="M64,0.000543740272 L92.4,-2.23820962e-13 C97.7019336,-2.24794911e-13 102,4.2980664 102,9.6 C102,9.60018125 102,9.6003625 102,9.60054376 L101.997848,38.0005437 L64,0.000543740272 Z" id="Rectangle-2" fill="#8ED0B0" fill-rule="evenodd" transform="translate(83.000000, 19.000272) scale(-1, -1) translate(-83.000000, -19.000272) "></path>
            </g>
        </g>
    </g>
</svg>
